X:0134
T:The Parson in the Suds.
T:The Parson in the Sudds.
N:second title is as in the index
M:2/4
L:1/8
Q:1/4=124
I: :: ::
Z:Jack Campin * www.campin.me.uk * 2009
K:G
f|g2dc|B2AG|FGAB|cAAf|(g/f/e/f/) gd|B2AG|FGAc|BGG:|
B|DGBG|AGBG|DGBG|cAAB| cdef        |gdcB|cAdc|BGG:|

